X: 40850
T: Traveller's Joy
R: polka
M: 2/4
K: Gmajor
|:f>g a>f|gB B/c/d|ee/e/ dg|B/A/G/B/ A2|
f>g a>f|gB B/c/d|ee/e/ dg|af g2:|
|:A>D Dc|BG/A/ B/c/d|ee/e/ dg|B/A/G/B/ A2|
A>D Dc|BG/A/ B/c/d|ee/e/ dg|af g2:|

